src/icons/outline/symbols/table.svg

<svg width="24" height="24" viewBox="0 0 24 24" fill="none" xmlns="http://www.w3.org/2000/svg">
<g clip-path="url(#clip0_4922_1090)">
<path fill-rule="evenodd" clip-rule="evenodd" d="M20.2432 1.75024C20.2513 1.7504 20.2618 1.75077 20.2734 1.75122C20.2966 1.75212 20.3265 1.75413 20.3623 1.75708C20.4339 1.76298 20.5303 1.77433 20.6436 1.79614C20.8671 1.83919 21.1739 1.92574 21.4873 2.10669C22.1632 2.49707 22.7499 3.25783 22.75 4.55103V19.4543L22.749 19.4827C22.7484 19.5053 22.7474 19.5359 22.7451 19.5725C22.7406 19.6458 22.732 19.7465 22.7148 19.8655C22.681 20.0998 22.6121 20.4253 22.4668 20.761C22.3214 21.097 22.0872 21.4717 21.709 21.7629C21.3205 22.0621 20.824 22.2385 20.2246 22.2385H15.4531C15.4121 22.2455 15.3701 22.2502 15.3271 22.2502C15.284 22.2502 15.2414 22.2455 15.2002 22.2385H8.79004C8.74902 22.2455 8.70706 22.2502 8.66406 22.2502C8.6209 22.2502 8.57828 22.2455 8.53711 22.2385H3.75684C3.74867 22.2384 3.73818 22.238 3.72656 22.2375C3.70338 22.2367 3.67347 22.2346 3.6377 22.2317C3.56617 22.2258 3.46967 22.2154 3.35645 22.1936C3.13284 22.1506 2.8261 22.0631 2.5127 21.8821C1.83672 21.4917 1.25 20.7311 1.25 19.4377V4.53442L1.25098 4.5061C1.25163 4.48356 1.25264 4.45359 1.25488 4.41724C1.25942 4.34388 1.26796 4.24244 1.28516 4.12329C1.319 3.8889 1.38794 3.56342 1.5332 3.22778C1.67858 2.89193 1.913 2.51805 2.29102 2.22681C2.67953 1.92763 3.17604 1.75029 3.77539 1.75024H20.2432ZM2.75 19.4377C2.75 20.1954 3.05086 20.4609 3.2627 20.5833C3.39302 20.6585 3.53041 20.6989 3.63965 20.72C3.69268 20.7302 3.73517 20.7354 3.76074 20.7375C3.77177 20.7385 3.77959 20.7384 3.7832 20.7385H7.91406V15.0608H2.75V19.4377ZM9.41406 20.7385H14.5771V15.0608H9.41406V20.7385ZM16.0771 20.7385H20.2246C20.5125 20.7385 20.6822 20.6597 20.793 20.5745C20.9141 20.4812 21.0133 20.342 21.0898 20.1653C21.1664 19.9884 21.2078 19.8007 21.2295 19.6506C21.24 19.5778 21.2456 19.5185 21.248 19.4797C21.2492 19.4605 21.2498 19.4461 21.25 19.4387V15.0608H16.0771V20.7385ZM2.75 13.5608H7.91406V7.87134H2.75V13.5608ZM9.41406 13.5608H14.5771V7.87134H9.41406V13.5608ZM16.0771 13.5608H21.25V7.87134H16.0771V13.5608ZM3.77539 3.25024C3.48721 3.25028 3.31783 3.32998 3.20703 3.41528C3.08595 3.50852 2.98666 3.64679 2.91016 3.82349C2.83358 4.00039 2.79217 4.18803 2.77051 4.33813C2.76001 4.41095 2.75436 4.47026 2.75195 4.50903C2.75076 4.52832 2.75021 4.54269 2.75 4.55005V6.37134H21.25V4.55103C21.2499 3.79391 20.9491 3.52891 20.7373 3.40649C20.607 3.33122 20.4696 3.28986 20.3604 3.2688C20.3074 3.2586 20.2648 3.25432 20.2393 3.2522C20.2282 3.25129 20.2204 3.2504 20.2168 3.25024H3.77539Z" fill="#3C3B44"/>
</g>
<defs>
<clipPath id="clip0_4922_1090">
<rect width="24" height="24" fill="white"/>
</clipPath>
</defs>
</svg>

<svg xmlns="http://www.w3.org/2000/svg" width="24" height="24" fill="none" viewBox="0 0 24 24"><g clip-path="url(#a)"><path fill="currentColor" fill-rule="evenodd" d="m20.243 1.75.12.007a2.7 2.7 0 0 1 1.125.35c.675.39 1.262 1.15 1.262 2.444v14.903l-.001.029-.004.09a3.6 3.6 0 0 1-.278 1.188c-.146.336-.38.71-.758 1.002-.389.3-.885.475-1.484.475h-4.772a.8.8 0 0 1-.253 0H8.79a.8.8 0 0 1-.253 0h-4.78a1 1 0 0 1-.12-.006 2.7 2.7 0 0 1-1.125-.35c-.675-.39-1.262-1.15-1.262-2.444V4.534l.001-.028.004-.089a3.6 3.6 0 0 1 .278-1.19c.146-.335.38-.709.758-1 .389-.3.885-.477 1.484-.477zM2.75 19.438c0 .757.3 1.023.513 1.145a1.2 1.2 0 0 0 .498.155h4.153v-5.677H2.75zm6.664 1.3h5.163v-5.677H9.414zm6.663 0h4.148c.287 0 .457-.078.568-.163q.181-.143.297-.41a2 2 0 0 0 .158-.685l.002-.041V15.06h-5.173zM2.75 13.561h5.164V7.87H2.75zm6.664 0h5.163V7.87H9.414zm6.663 0h5.173V7.87h-5.173zM3.775 3.25c-.288 0-.457.079-.568.164a1 1 0 0 0-.297.408 2 2 0 0 0-.158.686l-.002.041V6.37h18.5V4.55c0-.757-.3-1.022-.513-1.145a1.2 1.2 0 0 0-.498-.154l-.022-.002z" clip-rule="evenodd"/></g><defs><clipPath id="a"><path fill="currentColor" d="M0 0h24v24H0z"/></clipPath></defs></svg>
